miniprogram/assets/figma/image-recognition-icon.svg

<svg width="24" height="24" viewBox="0 0 24 24" fill="none" xmlns="http://www.w3.org/2000/svg">
<path d="M3.06811 2.5C3.07873 2.5 3.08936 2.50001 3.10001 2.50001H7.50001C8.05229 2.50001 8.5 2.94772 8.5 3.50001C8.5 4.05229 8.05229 4.50001 7.50001 4.50001H3.10001C2.80348 4.50001 2.64122 4.50078 2.52464 4.51031C2.52 4.51069 2.5156 4.51107 2.51145 4.51145C2.51107 4.5156 2.51069 4.52 2.51031 4.52464C2.50078 4.64122 2.50001 4.80348 2.50001 5.10001V9.50001C2.50001 10.0523 2.05229 10.5 1.50001 10.5C0.94772 10.5 0.500005 10.0523 0.500005 9.50001V5.10001C0.500005 5.08936 0.500004 5.07873 0.500003 5.06811C0.499973 4.81572 0.499943 4.56993 0.51695 4.36178C0.535627 4.13318 0.579695 3.86345 0.717992 3.59202C0.909739 3.2157 1.2157 2.90974 1.59202 2.71799C1.86345 2.57969 2.13318 2.53563 2.36178 2.51695C2.56993 2.49994 2.81572 2.49997 3.06811 2.5Z" fill="white"/>
<path d="M21.4754 4.51031C21.3588 4.50078 21.1965 4.50001 20.9 4.50001H16.5C15.9477 4.50001 15.5 4.05229 15.5 3.50001C15.5 2.94772 15.9477 2.50001 16.5 2.50001L20.9319 2.5C21.1843 2.49997 21.4301 2.49994 21.6382 2.51695C21.8668 2.53563 22.1366 2.57969 22.408 2.71799C22.7843 2.90974 23.0903 3.2157 23.282 3.59202C23.4203 3.86345 23.4644 4.13318 23.4831 4.36178C23.5001 4.56993 23.5 4.81571 23.5 5.06809L23.5 9.50001C23.5 10.0523 23.0523 10.5 22.5 10.5C21.9477 10.5 21.5 10.0523 21.5 9.50001V5.10001C21.5 4.80348 21.4992 4.64122 21.4897 4.52464C21.4893 4.52 21.4889 4.5156 21.4885 4.51145C21.4844 4.51107 21.48 4.51069 21.4754 4.51031Z" fill="white"/>
<path d="M1.50001 13.5C2.05229 13.5 2.50001 13.9477 2.50001 14.5V18.9C2.50001 19.1965 2.50078 19.3588 2.51031 19.4754C2.51069 19.48 2.51107 19.4844 2.51145 19.4886C2.5156 19.4889 2.52 19.4893 2.52464 19.4897C2.64122 19.4992 2.80348 19.5 3.10001 19.5H7.50001C8.05229 19.5 8.5 19.9477 8.5 20.5C8.5 21.0523 8.05229 21.5 7.50001 21.5L3.06809 21.5C2.81571 21.5 2.56993 21.5001 2.36178 21.4831C2.13318 21.4644 1.86345 21.4203 1.59202 21.282C1.2157 21.0903 0.909739 20.7843 0.717992 20.408C0.579695 20.1366 0.535627 19.8668 0.51695 19.6382C0.499943 19.4301 0.499973 19.1843 0.500003 18.9319L0.500005 14.5C0.500005 13.9477 0.94772 13.5 1.50001 13.5Z" fill="white"/>
<path d="M22.5 13.5C23.0523 13.5 23.5 13.9477 23.5 14.5L23.5 18.9319C23.5 19.1843 23.5001 19.4301 23.4831 19.6382C23.4644 19.8668 23.4203 20.1366 23.282 20.408C23.0903 20.7843 22.7843 21.0903 22.408 21.282C22.1366 21.4203 21.8668 21.4644 21.6382 21.4831C21.4301 21.5001 21.1843 21.5 20.9319 21.5L16.5 21.5C15.9477 21.5 15.5 21.0523 15.5 20.5C15.5 19.9477 15.9477 19.5 16.5 19.5H20.9C21.1965 19.5 21.3588 19.4992 21.4754 19.4897C21.48 19.4893 21.4844 19.4889 21.4886 19.4885C21.4889 19.4844 21.4893 19.48 21.4897 19.4754C21.4992 19.3588 21.5 19.1965 21.5 18.9V14.5C21.5 13.9477 21.9477 13.5 22.5 13.5Z" fill="white"/>
</svg>

<svg xmlns="http://www.w3.org/2000/svg" width="24" height="24" fill="none" viewBox="0 0 24 24"><path fill="#fff" d="M3.068 2.5H7.5a1 1 0 0 1 0 2H3.1a8 8 0 0 0-.589.011v.014c-.01.116-.011.278-.011.575v4.4a1 1 0 0 1-2 0V5.068c0-.252 0-.498.017-.706a2 2 0 0 1 .201-.77 2 2 0 0 1 .874-.874 2 2 0 0 1 .77-.201c.208-.017.454-.017.706-.017m18.407 2.01a8 8 0 0 0-.575-.01h-4.4a1 1 0 1 1 0-2h4.432c.252 0 .498 0 .706.017.229.019.499.063.77.201a2 2 0 0 1 .874.874c.138.271.182.541.201.77.017.208.017.454.017.706V9.5a1 1 0 1 1-2 0V5.1a8 8 0 0 0-.012-.589zM1.5 13.5a1 1 0 0 1 1 1v4.4a8 8 0 0 0 .011.589h.014c.116.01.278.011.575.011h4.4a1 1 0 1 1 0 2H3.068c-.252 0-.498 0-.706-.017a2 2 0 0 1-.77-.201 2 2 0 0 1-.874-.874 2 2 0 0 1-.201-.77C.5 19.43.5 19.184.5 18.932V14.5a1 1 0 0 1 1-1m21 0a1 1 0 0 1 1 1v4.432c0 .252 0 .498-.017.706a2 2 0 0 1-.201.77 2 2 0 0 1-.874.874 2 2 0 0 1-.77.201c-.208.017-.454.017-.706.017H16.5a1 1 0 1 1 0-2h4.4a8 8 0 0 0 .589-.012v-.013c.01-.116.011-.279.011-.575v-4.4a1 1 0 0 1 1-1"/></svg>
